X:1
T:Christ the Lord Is Born
T:Christ the Lord Is Born
T:Ira Bishop Wilson
T:Edith J. Sanford Tillotson, 1914
T:Public Domain Courtesy of the Cyber Hymnal™
T:Public Domain Courtesy of the Cyber Hymnal™
C:Ira Bishop Wilson
Z:Public Domain
Z:Courtesy of the Cyber Hymnal™
%%score ( 1 2 ) 3
L:1/8
Q:1/4=100
M:4/4
K:Ab
V:1 treble 
V:2 treble 
V:3 bass 
V:1
 [Ac][Ac][Ac][Ac] [Gc]2 [Gc]2 | [Fc]2 [Gc]2 [Fc]2 [Ec]2 | EFGA B2 A2 | G6 z2 | %4
w: 1.~Once a- gain the Christ- mas|bells have brought us|Tid- ings of good will and|peace;|
w: 2.~Ma- ny years have passed since|first the sto- ry|E- choed o- ver Beth- lehem’s|plain;|
 [Bd][Bd][Bd][Bd] [Ad]2 [Ad]2 | [Gd]2 [Ad]2 [Gd]2 [Fd]2 | EFGA B2 =B2 | c6 z2 | %8
w: Once a- gain the an- gel|lips have taught us|Mu- sic that shall ne- ver|cease.|
w: Still we see the star in|all its glo- ry,|Still we hear the sweet re-|frain.|
 [Ac][Ac][Ac][Ac] [Gc]2 [Gc]2 | [Fc]2 [Gc]2 [Fc]2 [Ec]2 | EFGA [FB]2 [Fd]2 | [=Ec]6 z2 | %12
w: O- ver all the world the|song is sound- ing,|Ring- ing in the hap- py|morn—|
w: Ev- ery where we find glad|voic- es sing- ing|Wel- come to His na- tal|morn—|
 !>![EFd]2 (!>![EFd]2 =EFEF) | !>![=DFc]2 (!>![DFB]2 =EFEF) | [=DA]2 [DA]2 [DG]2 [DF]2 | %15
w: “Glo- ry! * * * *|glo- ry! * * * *|Christ the Lord is|
w: “Glo- ry! * * * *|glo- ry! * * * *|Christ the Lord is|
 (z2 !>!G2 !>!A2 !>![GB]2) ||"^Refrain" z2 [EA]2 (z2 [EA]2) | z2 [EA]2 [EA]2 [A,C]>[B,D] | %18
w: ||* * born.” *|
w: ||* * born.” Night|
 [CE]2 [B,C=E]2 [A,CF]2 [FAd]2 | (z2 [EA][EA]) z2 [EA]2 | z2 [EB]2 (z2 [DE]2) | %21
w: |||
w: * of joy, when|||
 z2 [CF]2 [CF]2 c>A | F2 [=DB]2 [DB]2 [DF]2 | A2 [DG]2 [DF]2 [DE]2 | (z2 [EA]2) (z2 [EA]2) | %25
w: ||||
w: * * the star|* shone out a-|bove, Night of joy||
 z2 [EA]2 [EA]2 [A,C]>[B,D] | [CE]2 [B,C=E]2 [A,CF]2 [FGd]2 | (z2 [=EG][EG]) z2 [EG]2 | %28
w: |||
w: * * when the|* world re- ceived||
 [EFd]2 ([EFc]2 =EFEF) | [=DFc]2 ([DFB]2 =EFEF) | G2 [Fd]2 [Ec]2 [DB]2 | [CA]8 |] %32
w: ||||
w: * that * * * *|gift of * * * *|love; Oh, night of|joy!|
V:2
 x8 | x8 | x8 | x8 | x8 | x8 | x8 | x8 | x8 | x8 | x8 | x8 | x8 | x8 | x8 | E4 x4 || c4 c4 | %17
 c6 x2 | x8 | c8 | d4 G4 | A6 x2 | x8 | x8 | c4 c4 | c6 x2 | x8 | c8 | x8 | x8 | x8 | x8 |] %32
V:3
 A,,2 [E,A,C]2 G,,2 [E,A,C]2 | A,,2 [E,A,C]2 E,,2 [E,A,C]2 | A,,2 [E,A,C]2 C,2 _C,2 | %3
 (B,,2 [E,G,D][E,G,D] [E,G,D]2 [E,G,D]2) | B,,2 [E,G,D]2 E,,2 [E,G,D]2 | %5
 B,,2 [E,G,D]2 E,,2 [E,G,D]2 | G,,2 [E,G,D]2 E,,2 [E,G,D]2 | %7
 (A,,2 [E,A,C][E,A,C] [E,A,C]2 [E,A,C]2) | A,,2 [E,A,C]2 E,,2 [E,A,C]2 | %9
 A,,2 [E,A,C]2 E,,2 [E,A,C]2 | A,,2 [E,A,C]2 D,2 B,,2 | (C,2 [G,B,C][G,B,C] [G,B,C]2 [G,B,C]2) | %12
 =A,,2 [F,=A,]2 z4 | B,,2 [F,A,B,]2 z4 | B,,2 F,2 B,2 A,2 | %15
 ([E,G,]2 !>![D,D]2 !>![C,C]2 !>![B,,B,]2) || [A,,A,]4 [E,,E,]4 | [A,,A,]6 z2 | A,2 G,2 F,2 D,2 | %19
 A,,4 E,,4 | G,,4 E,,4 | F,,6 z2 | =D,2 [F,A,B,]2 B,,2 [F,A,B,]2 | E,,2 [E,B,]2 [F,B,]2 [G,B,]2 | %24
 [A,,A,]4 [E,,E,]4 | [A,,A,]6 z2 | A,2 G,2 F,2 B,,2 | C,4 C,,4 | =A,,2 [F,=A,]2 z4 | %29
 B,,2 [F,A,B,]2 z4 | E,,2 E,2 [E,F,]2 [E,G,]2 | [A,,E,A,]2 E,2 A,,4 |] %32

